**harmony	**harte	**kern	**silbe	**rhyme	**timestamp	**phrase
*M4/4	*M4/4	*ICvox	*	*	*	*
*	*	*VRlead	*	*	*	*
*	*	*Hstimme	*	*	*	*
*D:	*D:	*D:	*	*	*	*
*	*	*M4/4	*	*	*	*
*	*	*clefF4	*	*	*	*
1r;	1r	r;	.	.	0	.
=1	=1	=1	=1	=1	=1	=1
*>Letter>A	*>Letter>A	*>Letter>A	*>Letter>A	*>Letter>A	*>Letter>A	*>Letter>A
*>Label>Intro	*>Label>Intro	*>Label>Intro	*>Label>Intro	*>Label>Intro	*>Label>Intro	*>Label>Intro
1N	N	1r	.	.	1.012	newline
=2	=2	=2	=2	=2	=2	=2
1DM	D:maj	1r	.	.	2.075	.
=3	=3	=3	=3	=3	=3	=3
1DM	D:maj	1r	.	.	3.019	.
=4	=4	=4	=4	=4	=4	=4
1DM	D:maj	1r	.	.	3.964	.
=5	=5	=5	=5	=5	=5	=5
1DM	D:maj	2r	.	.	4.908	.
.	.	4F#	Hap-	.	.	.
.	.	4G	-py	.	.	.
=6	=6	=6	=6	=6	=6	=6
*>Letter>B	*>Letter>B	*>Letter>B	*>Letter>B	*>Letter>B	*>Letter>B	*>Letter>B
*>Label>Verse	*>Label>Verse	*>Label>Verse	*>Label>Verse	*>Label>Verse	*>Label>Verse	*>Label>Verse
1DM	D:maj	4A	Jack	.	5.853	newline
.	.	4r	.	.	.	.
.	.	4F#	was-	.	.	.
.	.	4G	-'nt	.	.	.
=7	=7	=7	=7	=7	=7	=7
1DM	D:maj	2A	old	.	6.793	.
.	.	4F#	but	.	.	.
.	.	4A	he	.	.	.
=8	=8	=8	=8	=8	=8	=8
*M2/4	*M2/4	*M2/4	*	*	*M2/4	*M2/4
2AM	A:maj	4G	was	.	7.733	.
.	.	4C#	a	.	.	.
=9	=9	=9	=9	=9	=9	=9
*M4/4	*M4/4	*M4/4	*	*	*M4/4	*M4/4
1DM	D:maj	4D	man	A	8.204	newline
.	.	4r	.	.	.	.
.	.	2r	.	.	.	.
=10	=10	=10	=10	=10	=10	=10
1DM	D:maj	1r	.	.	9.139	.
=11	=11	=11	=11	=11	=11	=11
1DM	D:maj	1r	.	.	10.074	.
=12	=12	=12	=12	=12	=12	=12
1DM	D:maj	2r	.	.	11.009	.
.	.	4r	.	.	.	.
.	.	4F#	He	.	.	.
=13	=13	=13	=13	=13	=13	=13
1DM	D:maj	2A	lived	.	11.944	newline
.	.	4F#	in	.	.	.
.	.	4G	the	.	.	.
=14	=14	=14	=14	=14	=14	=14
1DM	D:maj	2A	sand	A	12.893	.
.	.	4F#	at	.	.	.
.	.	4A	the	.	.	.
=15	=15	=15	=15	=15	=15	=15
*M2/4	*M2/4	*M2/4	*	*	*M2/4	*M2/4
2AM	A:maj	4G	Isle	.	13.842	.
.	.	4C#	of	.	.	.
=16	=16	=16	=16	=16	=16	=16
*M4/4	*M4/4	*M4/4	*	*	*M4/4	*M4/4
1DM	D:maj	4D	Man	A	14.317	newline
.	.	4r	.	.	.	.
.	.	2r	.	.	.	.
=17	=17	=17	=17	=17	=17	=17
1DM	D:maj	1r	.	.	15.27	.
=18	=18	=18	=18	=18	=18	=18
*>Letter>A	*>Letter>A	*>Letter>A	*>Letter>A	*>Letter>A	*>Letter>A	*>Letter>A
*>Label>Trans	*>Label>Trans	*>Label>Trans	*>Label>Trans	*>Label>Trans	*>Label>Trans	*>Label>Trans
1N	N	1r	.	.	16.223	newline
=19	=19	=19	=19	=19	=19	=19
1N	N	1r	.	.	17.136	.
=20	=20	=20	=20	=20	=20	=20
1DM	D:maj	1r	.	.	18.05	.
=21	=21	=21	=21	=21	=21	=21
1DM	D:maj	2r	.	.	18.963	.
.	.	4r	.	.	.	.
.	.	4G	The	.	.	.
=22	=22	=22	=22	=22	=22	=22
*>Letter>B	*>Letter>B	*>Letter>B	*>Letter>B	*>Letter>B	*>Letter>B	*>Letter>B
*>Label>Verse	*>Label>Verse	*>Label>Verse	*>Label>Verse	*>Label>Verse	*>Label>Verse	*>Label>Verse
1DM	D:maj	2A	kids	.	19.876	newline
.	.	8F#	would	.	.	.
.	.	4.G	all	.	.	.
=23	=23	=23	=23	=23	=23	=23
1DM	D:maj	2A	sing	B	20.818	.
.	.	4F#	he	.	.	.
.	.	4A	would	.	.	.
=24	=24	=24	=24	=24	=24	=24
*M2/4	*M2/4	*M2/4	*	*	*M2/4	*M2/4
2AM	A:maj	4G	take	.	21.761	.
.	.	8C#	the	.	.	.
.	.	[8E	wrong	.	.	.
=25	=25	=25	=25	=25	=25	=25
*M4/4	*M4/4	*M4/4	*	*	*M4/4	*M4/4
1DM	D:maj	4E]	_	.	22.232	newline
.	.	2.D	key	B	.	.
=26	=26	=26	=26	=26	=26	=26
1DM	D:maj	1r	.	.	23.148	.
=27	=27	=27	=27	=27	=27	=27
1DM	D:maj	1r	.	.	24.065	.
=28	=28	=28	=28	=28	=28	=28
1DM	D:maj	2r	.	.	24.982	.
.	.	4F#	So	.	.	.
.	.	4G	they	.	.	.
=29	=29	=29	=29	=29	=29	=29
1DM	D:maj	2A	rode	.	25.898	newline
.	.	4F#	on	.	.	.
.	.	4G	his	.	.	.
=30	=30	=30	=30	=30	=30	=30
1DM	D:maj	2A	head	.	26.824	.
.	.	4F#	in	.	.	.
.	.	4A	their	.	.	.
=31	=31	=31	=31	=31	=31	=31
*M2/4	*M2/4	*M2/4	*	*	*M2/4	*M2/4
2AM	A:maj	4G	fur-	.	27.749	.
.	.	8C#	-ry	b	.	.
.	.	[8E	don-	.	.	.
=32	=32	=32	=32	=32	=32	=32
*M4/4	*M4/4	*M4/4	*	*	*M4/4	*M4/4
1DM	D:maj	4E]	_	.	28.212	newline
.	.	2D	-key	b	.	.
.	.	4r	.	.	.	.
=33	=33	=33	=33	=33	=33	=33
1DM	D:maj	1r	.	.	29.157	.
=34	=34	=34	=34	=34	=34	=34
*>Letter>C	*>Letter>C	*>Letter>C	*>Letter>C	*>Letter>C	*>Letter>C	*>Letter>C
*>Label>Trans	*>Label>Trans	*>Label>Trans	*>Label>Trans	*>Label>Trans	*>Label>Trans	*>Label>Trans
1DM	D:maj	1r	.	.	30.102	newline
=35	=35	=35	=35	=35	=35	=35
1DM	D:maj	1r	.	.	31.015	.
=36	=36	=36	=36	=36	=36	=36
1DM	D:maj	1r	.	.	31.928	.
=37	=37	=37	=37	=37	=37	=37
1DM	D:maj	1r	.	.	32.842	.
=38	=38	=38	=38	=38	=38	=38
1DM	D:maj	1r	.	.	33.755	newline
=39	=39	=39	=39	=39	=39	=39
1DM	D:maj	1r	.	.	34.659	.
=40	=40	=40	=40	=40	=40	=40
1DM	D:maj	1r	.	.	35.563	.
=41	=41	=41	=41	=41	=41	=41
*	*	*clefG2	*	*	*	*
1DM	D:maj	2r	.	.	36.467	.
.	.	4r	.	.	.	.
.	.	4a	The	.	.	.
=42	=42	=42	=42	=42	=42	=42
*>Letter>D	*>Letter>D	*>Letter>D	*>Letter>D	*>Letter>D	*>Letter>D	*>Letter>D
*>Label>Prechorus	*>Label>Prechorus	*>Label>Prechorus	*>Label>Prechorus	*>Label>Prechorus	*>Label>Prechorus	*>Label>Prechorus
1GM	G:maj	2b	kids	.	37.371	newline
.	.	8b	could-	.	.	.
.	.	4.b	-n't	.	.	.
=43	=43	=43	=43	=43	=43	=43
1GM	G:maj	4b	hurt	.	38.284	.
.	.	4b	Jack	D	.	.
.	.	4r	.	.	.	.
.	.	4b	they	.	.	.
=44	=44	=44	=44	=44	=44	=44
1AM	A:maj	2cc#	tried	C	39.197	.
.	.	2b	tried	C	.	.
=45	=45	=45	=45	=45	=45	=45
1AM	A:maj	4a	tried	C	40.111	.
.	.	4r	.	.	.	.
.	.	4r	.	.	.	.
.	.	4a	They	.	.	.
=46	=46	=46	=46	=46	=46	=46
1GM	G:maj	3b	dropped	.	41.024	newline
.	.	3b	things	.	.	.
.	.	3b	on	.	.	.
=47	=47	=47	=47	=47	=47	=47
1GM	G:maj	4b	his	.	41.942	.
.	.	4b	back	D	.	.
.	.	4r	.	.	.	.
.	.	4b	they	.	.	.
=48	=48	=48	=48	=48	=48	=48
1AM	A:maj	2cc#	lied	C	42.861	.
.	.	2b	lied	C	.	.
=49	=49	=49	=49	=49	=49	=49
1AM	A:maj	2a	lied	C	43.78	.
.	.	2g	lied	C	.	.
=50	=50	=50	=50	=50	=50	=50
1AM	A:maj	4g	lied	C	44.698	newline
.	.	[2.a	_	.	.	.
=51	=51	=51	=51	=51	=51	=51
1AM	A:maj	1a]	_	.	45.581	.
=52	=52	=52	=52	=52	=52	=52
1AM	A:maj	1r	.	.	46.463	.
=53	=53	=53	=53	=53	=53	=53
*	*	*clefF4	*	*	*	*
1AM	A:maj	2r	.	.	47.345	.
.	.	4r	.	.	.	.
.	.	4G	They	.	.	.
=54	=54	=54	=54	=54	=54	=54
*>Letter>B	*>Letter>B	*>Letter>B	*>Letter>B	*>Letter>B	*>Letter>B	*>Letter>B
*>Label>Chorus	*>Label>Chorus	*>Label>Chorus	*>Label>Chorus	*>Label>Chorus	*>Label>Chorus	*>Label>Chorus
1DM	D:maj	8A	could-	.	48.228	newline
.	.	4.A	-n't	.	.	.
.	.	2F#	stop	.	.	.
=55	=55	=55	=55	=55	=55	=55
1DM	D:maj	4A	Jack	D	49.156	.
.	.	[4F#	or	.	.	.
.	.	8F#]	_	.	.	.
.	.	8A	the	.	.	.
.	.	[4G	wa-	.	.	.
=56	=56	=56	=56	=56	=56	=56
*M2/4	*M2/4	*M2/4	*	*	*M2/4	*M2/4
2AM	A:maj	8G]	_	.	50.085	.
.	.	4C#	-ters	.	.	.
.	.	[8E	la-	(D	.	.
=57	=57	=57	=57	=57	=57	=57
*M4/4	*M4/4	*M4/4	*	*	*M4/4	*M4/4
1DM	D:maj	4E]	_	.	50.549	newline
.	.	4D	-pping	d)	.	.
.	.	2r	.	.	.	.
=58	=58	=58	=58	=58	=58	=58
1DM	D:maj	1r	.	.	51.501	.
=59	=59	=59	=59	=59	=59	=59
1DM	D:maj	1r	.	.	52.452	.
=60	=60	=60	=60	=60	=60	=60
1DM	D:maj	2r	.	.	53.404	.
.	.	4F#	and	.	.	.
.	.	4G	they	.	.	.
=61	=61	=61	=61	=61	=61	=61
1DM	D:maj	4A	coul-	.	54.356	newline
.	.	4A	-d'nt	.	.	.
.	.	4F#	pre-	.	.	.
.	.	[4A	-vent	.	.	.
=62	=62	=62	=62	=62	=62	=62
1DM	D:maj	4A]	_	.	55.295	.
.	.	2F#	Jack	D	.	.
.	.	4A	from	.	.	.
=63	=63	=63	=63	=63	=63	=63
*M2/4	*M2/4	*M2/4	*	*	*M2/4	*M2/4
2AM	A:maj	4G	fee-	.	56.234	.
.	.	4C#	-lin'	.	.	.
=64	=64	=64	=64	=64	=64	=64
*M4/4	*M4/4	*M4/4	*	*	*M4/4	*M4/4
1DM	D:maj	4E	ha-	(D	56.703	newline
.	.	2D	-ppy	d)	.	.
.	.	4r	.	.	.	.
=65	=65	=65	=65	=65	=65	=65
1DM	D:maj	1r	.	.	57.645	.
=66	=66	=66	=66	=66	=66	=66
*>Letter>E2	*>Letter>E2	*>Letter>E2	*>Letter>E2	*>Letter>E2	*>Letter>E2	*>Letter>E2
*>Label>Interlude	*>Label>Interlude	*>Label>Interlude	*>Label>Interlude	*>Label>Interlude	*>Label>Interlude	*>Label>Interlude
1AM	A:maj	1r	.	.	58.588	newline
=67	=67	=67	=67	=67	=67	=67
1AM	A:maj	1r	.	.	59.475	.
=68	=68	=68	=68	=68	=68	=68
1DM	D:maj	1r	.	.	60.362	.
=69	=69	=69	=69	=69	=69	=69
1DM	D:maj	1r	.	.	61.249	.
=70	=70	=70	=70	=70	=70	=70
1AM	A:maj	1r	.	.	62.136	newline
=71	=71	=71	=71	=71	=71	=71
1AM	A:maj	1r	.	.	63.025	.
=72	=72	=72	=72	=72	=72	=72
1DM	D:maj	1r	.	.	63.915	.
=73	=73	=73	=73	=73	=73	=73
1DM	D:maj	1r	.	.	64.805	.
=74	=74	=74	=74	=74	=74	=74
1AM	A:maj	1r	.	.	65.695	newline
=75	=75	=75	=75	=75	=75	=75
1AM	A:maj	1r	.	.	66.573	.
=76	=76	=76	=76	=76	=76	=76
1DM	D:maj	1r	.	.	67.451	.
=77	=77	=77	=77	=77	=77	=77
1DM	D:maj	1r	.	.	68.33	.
=78	=78	=78	=78	=78	=78	=78
1AM	A:maj	1r	.	.	69.208	newline
=79	=79	=79	=79	=79	=79	=79
1AM	A:maj	1r	.	.	70.07	.
=80	=80	=80	=80	=80	=80	=80
*>Letter>C	*>Letter>C	*>Letter>C	*>Letter>C	*>Letter>C	*>Letter>C	*>Letter>C
*>Label>Trans	*>Label>Trans	*>Label>Trans	*>Label>Trans	*>Label>Trans	*>Label>Trans	*>Label>Trans
1DM	D:maj	1r	.	.	70.933	newline
=81	=81	=81	=81	=81	=81	=81
1DM	D:maj	1r	.	.	71.845	.
=82	=82	=82	=82	=82	=82	=82
1DM	D:maj	1r	.	.	72.758	.
=83	=83	=83	=83	=83	=83	=83
1DM	D:maj	2r	.	.	73.671	.
.	.	4F#	But	.	.	.
.	.	4G	they	.	.	.
=84	=84	=84	=84	=84	=84	=84
*>Letter>B	*>Letter>B	*>Letter>B	*>Letter>B	*>Letter>B	*>Letter>B	*>Letter>B
*>Label>Chorus	*>Label>Chorus	*>Label>Chorus	*>Label>Chorus	*>Label>Chorus	*>Label>Chorus	*>Label>Chorus
1DM	D:maj	8A	could-	.	74.584	newline
.	.	4.A	-n't	.	.	.
.	.	2F#	stop	.	.	.
=85	=85	=85	=85	=85	=85	=85
1DM	D:maj	4A	Jack	D	75.533	.
.	.	[4F#	or	.	.	.
.	.	8F#]	_	.	.	.
.	.	8A	the	.	.	.
.	.	[4G	wa-	.	.	.
=86	=86	=86	=86	=86	=86	=86
*M2/4	*M2/4	*M2/4	*	*	*M2/4	*M2/4
2AM	A:maj	8G]	_	.	76.483	.
.	.	4C#	-ters	.	.	.
.	.	[8E	la-	(D	.	.
=87	=87	=87	=87	=87	=87	=87
*M4/4	*M4/4	*M4/4	*	*	*M4/4	*M4/4
1DM	D:maj	4E]	_	.	76.957	newline
.	.	2.D	-pping	d)	.	.
=88	=88	=88	=88	=88	=88	=88
1DM	D:maj	1r	.	.	77.891	.
=89	=89	=89	=89	=89	=89	=89
1DM	D:maj	1r	.	.	78.824	.
=90	=90	=90	=90	=90	=90	=90
1DM	D:maj	2r	.	.	79.758	.
.	.	4F#	and	.	.	.
.	.	4G	they	.	.	.
=91	=91	=91	=91	=91	=91	=91
1DM	D:maj	4A	coul-	.	80.692	newline
.	.	4A	-d'nt	.	.	.
.	.	4F#	pre-	.	.	.
.	.	[4A	-vent	.	.	.
=92	=92	=92	=92	=92	=92	=92
1DM	D:maj	4A]	_	.	81.61	.
.	.	2F#	Jack	D	.	.
.	.	4A	from	.	.	.
=93	=93	=93	=93	=93	=93	=93
*M2/4	*M2/4	*M2/4	*	*	*M2/4	*M2/4
2AM	A:maj	4G	fee-	.	82.528	.
.	.	4C#	-lin'	.	.	.
=94	=94	=94	=94	=94	=94	=94
*M4/4	*M4/4	*M4/4	*	*	*M4/4	*M4/4
1DM	D:maj	4E	ha-	(D	82.987	newline
.	.	2D	-ppy	d)	.	.
.	.	4r	.	.	.	.
=95	=95	=95	=95	=95	=95	=95
1DM	D:maj	1r	.	.	83.921	.
=96	=96	=96	=96	=96	=96	=96
*>Letter>E	*>Letter>E	*>Letter>E	*>Letter>E	*>Letter>E	*>Letter>E	*>Letter>E
*>Label>Interlude	*>Label>Interlude	*>Label>Interlude	*>Label>Interlude	*>Label>Interlude	*>Label>Interlude	*>Label>Interlude
1AM	A:maj	1r	.	.	84.855	newline
=97	=97	=97	=97	=97	=97	=97
1AM	A:maj	1r	.	.	85.742	.
=98	=98	=98	=98	=98	=98	=98
1DM	D:maj	1r	.	.	86.628	.
=99	=99	=99	=99	=99	=99	=99
1DM	D:maj	1r	.	.	87.515	.
=100	=100	=100	=100	=100	=100	=100
1AM	A:maj	1r	.	.	88.401	newline
=101	=101	=101	=101	=101	=101	=101
1AM	A:maj	1r	.	.	89.29	.
=102	=102	=102	=102	=102	=102	=102
1DM	D:maj	1r	.	.	90.178	.
=103	=103	=103	=103	=103	=103	=103
1DM	D:maj	1r	.	.	91.067	.
=104	=104	=104	=104	=104	=104	=104
1GM	G:maj	1r	.	.	91.955	newline
=105	=105	=105	=105	=105	=105	=105
1GM	G:maj	1r	.	.	92.846	.
=106	=106	=106	=106	=106	=106	=106
1AM	A:maj	1r	.	.	93.737	.
=107	=107	=107	=107	=107	=107	=107
1DM	D:maj	1r	.	.	94.628	.
=108	=108	=108	=108	=108	=108	=108
1GM	G:maj	1r	.	.	95.519	newline
=109	=109	=109	=109	=109	=109	=109
1GM	G:maj	1r	.	.	96.415	.
=110	=110	=110	=110	=110	=110	=110
1AM	A:maj	1r	.	.	97.311	newline
=111	=111	=111	=111	=111	=111	=111
1AM	A:maj	1r	.	.	98.205	.
=112	=112	=112	=112	=112	=112	=112
1AM	A:maj	1r	.	.	99.1	.
=113	=113	=113	=113	=113	=113	=113
1AM	A:maj	1r	.	.	99.994	.
=114	=114	=114	=114	=114	=114	=114
1AM	A:maj	1r	.	.	100.889	newline
=115	=115	=115	=115	=115	=115	=115
1AM	A:maj	1r	.	.	101.804	.
=116	=116	=116	=116	=116	=116	=116
1AM	A:maj	1r	.	.	102.719	.
=117	=117	=117	=117	=117	=117	=117
1AM	A:maj	1r	.	.	103.635	.
=118	=118	=118	=118	=118	=118	=118
*>Letter>D	*>Letter>D	*>Letter>D	*>Letter>D	*>Letter>D	*>Letter>D	*>Letter>D
*>Label>Prechorus	*>Label>Prechorus	*>Label>Prechorus	*>Label>Prechorus	*>Label>Prechorus	*>Label>Prechorus	*>Label>Prechorus
1GM	G:maj	2b	Kids	.	104.55	newline
.	.	8b	could-	.	.	.
.	.	4.b	-n't	.	.	.
=119	=119	=119	=119	=119	=119	=119
1GM	G:maj	4b	hurt	.	105.475	.
.	.	4b	Jack	D	.	.
.	.	4r	.	.	.	.
.	.	4b	they	.	.	.
=120	=120	=120	=120	=120	=120	=120
1AM	A:maj	2cc#	tried	C	106.4	.
.	.	2b	tried	C	.	.
=121	=121	=121	=121	=121	=121	=121
1AM	A:maj	2a	tried	C	107.325	.
.	.	4r	.	.	.	.
.	.	4a	They	.	.	.
=122	=122	=122	=122	=122	=122	=122
1GM	G:maj	3b	dropped	.	108.25	newline
.	.	3b	things	.	.	.
.	.	3b	on	.	.	.
=123	=123	=123	=123	=123	=123	=123
1GM	G:maj	4b	his	.	109.155	.
.	.	4b	back	D	.	.
.	.	4r	.	.	.	.
.	.	4b	the	.	.	.
=124	=124	=124	=124	=124	=124	=124
1AM	A:maj	2cc#	lied	.	110.059	.
.	.	2b	lied	C	.	.
=125	=125	=125	=125	=125	=125	=125
1AM	A:maj	2a	lied	C	110.964	.
.	.	2g	lied	C	.	.
=126	=126	=126	=126	=126	=126	=126
1AM	A:maj	4g	lied	C	111.869	newline
.	.	[2.a	_	.	.	.
=127	=127	=127	=127	=127	=127	=127
1AM	A:maj	1a]	_	.	112.763	.
=128	=128	=128	=128	=128	=128	=128
1AM	A:maj	1r	.	.	113.658	.
=129	=129	=129	=129	=129	=129	=129
1AM	A:maj	2r	.	.	114.553	.
.	.	4r	.	.	.	.
*	*	*clefF4	*	*	*	*
.	.	4G	They	.	.	.
=130	=130	=130	=130	=130	=130	=130
*>Letter>B	*>Letter>B	*>Letter>B	*>Letter>B	*>Letter>B	*>Letter>B	*>Letter>B
*>Label>Chorus	*>Label>Chorus	*>Label>Chorus	*>Label>Chorus	*>Label>Chorus	*>Label>Chorus	*>Label>Chorus
1DM	D:maj	8A	could-	.	115.447	newline
.	.	4.A	-n't	.	.	.
.	.	4F#	stop	.	.	.
.	.	[4A	Jack	D	.	.
=131	=131	=131	=131	=131	=131	=131
1DM	D:maj	4A]	_	.	116.372	.
.	.	2F#	or	.	.	.
.	.	4A	the	.	.	.
=132	=132	=132	=132	=132	=132	=132
*M2/4	*M2/4	*M2/4	*	*	*M2/4	*M2/4
2AM	A:maj	4G	wa-	.	117.297	.
.	.	4C#	-ters	.	.	.
=133	=133	=133	=133	=133	=133	=133
*M4/4	*M4/4	*M4/4	*	*	*M4/4	*M4/4
1DM	D:maj	4E	la-	(D	117.759	newline
.	.	2D	-pping	d)	.	.
.	.	4r	.	.	.	.
=134	=134	=134	=134	=134	=134	=134
1DM	D:maj	1r	.	.	118.689	.
=135	=135	=135	=135	=135	=135	=135
1DM	D:maj	1r	.	.	119.619	.
=136	=136	=136	=136	=136	=136	=136
1DM	D:maj	2r	.	.	120.549	.
.	.	4F#	and	.	.	.
.	.	4G	they	.	.	.
=137	=137	=137	=137	=137	=137	=137
1DM	D:maj	4A	coul-	.	121.478	newline
.	.	4A	-d'nt	.	.	.
.	.	4F#	pre-	.	.	.
.	.	[4A	-vent	.	.	.
=138	=138	=138	=138	=138	=138	=138
1DM	D:maj	4A]	_	.	122.403	.
.	.	2F#	Jack	D	.	.
.	.	4A	from	.	.	.
=139	=139	=139	=139	=139	=139	=139
*M2/4	*M2/4	*M2/4	*	*	*M2/4	*M2/4
2AM	A:maj	4G	fee-	.	123.327	.
.	.	4C#	-lin'	.	.	.
=140	=140	=140	=140	=140	=140	=140
*M4/4	*M4/4	*M4/4	*	*	*M4/4	*M4/4
1DM	D:maj	4E	ha-	(D	123.789	newline
.	.	2D	-ppy	d)	.	.
.	.	4r	.	.	.	.
=141	=141	=141	=141	=141	=141	=141
1DM	D:maj	1r	.	.	124.729	.
=142	=142	=142	=142	=142	=142	=142
*>Letter>A	*>Letter>A	*>Letter>A	*>Letter>A	*>Letter>A	*>Letter>A	*>Letter>A
*>Label>Coda	*>Label>Coda	*>Label>Coda	*>Label>Coda	*>Label>Coda	*>Label>Coda	*>Label>Coda
1N	N	1r	.	.	125.669	newline
=143	=143	=143	=143	=143	=143	=143
1N	N	1r	.	.	126.604	.
=144	=144	=144	=144	=144	=144	=144
1DM	D:maj	1r	.	.	127.539	.
1r;	1r	r;	.	.	129.059	.
1r;	1r	r;	.	.	131.704	.
1r;	1r	r;	.	.	132.101	.
*-	*-	*-	*-	*-	*-	*-
!!!BillboardChartDate: 1967/04/22
!!!BillboardPeak: 24
!!!BillboardWeeksOnChart: 9
!!!COC: The Who
!!!ENC: Nathaniel Condit-Schultz
!!!EST: Awating manual error checking and editing.
!!!OTL: Happy Jack
!!!RDF**chordsym: original McGill chord annotation + (implied pitch class set, with bass pitch in first position)
!!!RDF**harmony: **recip + pitch class of root + harmonic quality
!!!RDF**leadinstrument: original McGill primary instrumentation annotation
!!!RDF**phrase: newline = linebreak in original McGill transcription
!!!RDF**timestamp: McGill audio timestamp in seconds
!!!RDT: 2017/01/12/
!!!SampleActualRank: 83
!!!SampleID#: 0891
!!!SampleTargetRank: 82
!!!MBID: 8a25cb86-620b-49a7-9058-10c683828fce
